img/skills/ajax.svg

<svg version="1.1" id="VARG" xmlns="http://www.w3.org/2000/svg" x="0" y="0" width="221" height="184" xml:space="preserve"><path fill="#EE3424" d="M53.822 47.904L26.669 56.21 3.028 169.937l22.362-7.028c4.792-15.653 23.001-24.917 23.001-24.917l3.194 17.569 17.57-5.749L53.822 47.904zm-23.001 77.628l8.945-41.849 5.431 32.904s-1.278-2.236-14.376 8.945z"/><path fill="#EE3424" d="M61.17 168.659s8.945-1.279 9.584-17.89l3.194-107.657 21.723-6.389-5.111 108.616s-1.597 28.432-29.39 35.779v-12.459zM193.744 64.835l17.89-60.058-23.32 6.07-7.986 29.709-13.418-24.278-20.445 6.07 24.598 46.321-15.015 44.404-13.098-89.767-27.153 7.667-23.959 113.726 22.042-7.027c6.389-17.251 22.682-23.321 22.682-23.321l2.874 16.931 35.779-9.903 9.265-29.39 13.098 23.959 19.487-6.389-23.321-44.724zm-73.155 36.099l7.667-42.807 4.792 34.821s-5.751 1.278-12.459 7.986z"/></svg>

<?xml version="1.0" encoding="utf-8"?>
<!DOCTYPE svg PUBLIC "-//W3C//DTD SVG 1.1//EN" "http://www.w3.org/Graphics/SVG/1.1/DTD/svg11.dtd">
<svg version="1.1" id="VARG" xmlns="http://www.w3.org/2000/svg" xmlns:xlink="http://www.w3.org/1999/xlink" x="0px" y="0px"
 width="221px" height="184px" viewBox="0 0 221 184" enable-background="new 0 0 221 184" xml:space="preserve">
<path fill="#EE3424" d="M53.822,47.904L26.669,56.21L3.028,169.937l22.362-7.028c4.792-15.653,23.001-24.917,23.001-24.917
l3.194,17.569l17.57-5.749L53.822,47.904z M30.821,125.532l8.945-41.849l5.431,32.904C45.197,116.587,43.919,114.351,30.821,125.532
z"/>
<path fill="#EE3424" d="M61.17,168.659c0,0,8.945-1.279,9.584-17.89l3.194-107.657l21.723-6.389L90.56,145.339
c0,0-1.597,28.432-29.39,35.779V168.659z"/>
<path fill="#EE3424" d="M193.744,64.835l17.89-60.058l-23.32,6.07l-7.986,29.709L166.91,16.278l-20.445,6.07l24.598,46.321
l-15.015,44.404L142.95,23.306l-27.153,7.667L91.838,144.699l22.042-7.027c6.389-17.251,22.682-23.321,22.682-23.321l2.874,16.931
l35.779-9.903l9.265-29.39l13.098,23.959l19.487-6.389L193.744,64.835z M120.589,100.934l7.667-42.807l4.792,34.821
C133.048,92.948,127.297,94.226,120.589,100.934z"/>
</svg>
